X:157
T:
S:Uppt. efter Helena Mårtensson i Burs.
M:C
L:1/8
K:Gm
G ^F G A B G A2|D ^F ^F2 G2 z2|
w:Nä ja va en läi-ten dräŋg hä i vär-den,
G ^G G A B G A2|D ^F ^F2 G2 z2||
w:hadd ja mi a läu-ti säŋg ba-kum dö-ren.
B c d d A B c2|B c d d A B c2|
w:Sal-tar sträm-miŋg four äi brunn, smöir komm ald-ri äi min munn.
B A G B A2 D ^F|^F2 G2 z2 z2:|
w:Så-den sid fö-gloi-mar ja ald-ri.
